src/assets/img/blue_flower.svg

<svg width="80" height="80" viewBox="0 0 80 80" fill="none" xmlns="http://www.w3.org/2000/svg">
<rect width="80" height="80" fill="#E5E5E5"/>
<g clip-path="url(#clip0)">
<rect width="1574" height="752" transform="translate(-425 -392)" fill="white"/>
<circle cx="40" cy="40" r="40" fill="#FFF7CA"/>
<path d="M34.47 70.5081C23.8903 68.603 15.1756 61.3297 11.2471 51.6094C21.7407 53.686 30.3893 60.8932 34.47 70.5081Z" fill="#B0ECE6"/>
<path d="M68.7595 51.5928C58.2222 53.6483 49.5343 60.8749 45.4453 70.5233C56.0691 68.6408 64.8237 61.3474 68.7595 51.5928Z" fill="#B0ECE6"/>
<path d="M56.626 20.0159C57.8778 19.86 58.9834 20.8374 58.9834 22.1072C59.0165 22.6765 58.994 26.2332 58.9705 29.9368C58.9449 33.9833 58.9182 38.2051 58.9616 38.8974C58.9616 48.7657 51.5323 56.8857 42.0001 57.8938V70.9363C41.3389 70.9784 40.672 70.9998 40.0001 70.9998C39.3282 70.9998 38.6614 70.9784 38.0001 70.9363V57.8969C28.4536 56.9027 21.0088 48.776 21.0088 38.8974C21.0078 38.7876 21.0064 38.6774 21.005 38.5668C20.9979 38.0111 20.9907 37.4445 21.0316 36.8651V22.1072C21.0316 20.8383 22.1381 19.86 23.3898 20.0168C31.8703 21.0197 38.8594 27.9945 39.8636 36.6001L39.8619 36.6019C39.9546 37.3547 40.0036 38.1208 40.0062 38.8974H40.0088C40.0123 38.1208 40.0604 37.3547 40.1531 36.6019L40.1514 36.6001C41.1565 27.9936 48.1447 21.0197 56.626 20.0159Z" fill="#B0ECE6"/>
</g>
<defs>
<clipPath id="clip0">
<rect width="1574" height="752" fill="white" transform="translate(-425 -392)"/>
</clipPath>
</defs>
</svg>

<svg width="80" height="80" fill="none" xmlns="http://www.w3.org/2000/svg"><path fill="#E5E5E5" d="M0 0h80v80H0z"/><g clip-path="url(#clip0)"><path fill="#fff" d="M-425-392h1574v752H-425z"/><circle cx="40" cy="40" r="40" fill="#FFF7CA"/><path d="M34.47 70.508C23.89 68.603 15.176 61.33 11.247 51.61c10.494 2.077 19.142 9.284 23.223 18.9zM68.76 51.593c-10.538 2.055-19.226 9.282-23.315 18.93 10.624-1.882 19.379-9.176 23.315-18.93zM56.626 20.016a2.1 2.1 0 012.357 2.091c.034.57.011 4.126-.012 7.83-.026 4.046-.053 8.268-.01 8.96 0 9.869-7.429 17.989-16.96 18.997v13.042a31.472 31.472 0 01-4 0v-13.04c-9.547-.993-16.992-9.12-16.992-18.999l-.004-.33a20.28 20.28 0 01.027-1.702V22.107a2.1 2.1 0 012.358-2.09c8.48 1.003 15.47 7.977 16.474 16.583l-.002.002c.093.753.142 1.519.144 2.295h.003c.003-.776.051-1.542.144-2.295l-.002-.002c1.005-8.606 7.994-15.58 16.475-16.584z" fill="#B0ECE6"/></g><defs><clipPath id="clip0"><path fill="#fff" transform="translate(-425 -392)" d="M0 0h1574v752H0z"/></clipPath></defs></svg>
